X: 212
%
U:~=!turn!
T: The Granite City
C:James Scott Skinner
O:Scotland
B:Keith Norman MacDonald : "The Skye collection of the best reels & strathspeys extant" : 1887
Z:Ralph Palmer
R:Reel
M:C
L:1/8
K:D
A, | D/2D/2D (FB) AFFA | GFED CDEC | D/2D/2D (FB) AFFA | (B/2c/2d) (e/2f/2g) fdd & Bdce dDD:|
g | fdec dBcA | (B/2c/2d) (AF) BEEg | fdec dBcA | (B/2c/2d) (e/2f/2g) fddg |
fdec dBcA | (B/2c/2d) (AF) BEEF | DFEG FAGB | Adce fdd |]


